X: 32850
T: Port Na Giobóige
R: reel
M: 4/4
K: Gmajor
dc|BGGF G2dB|cAAG A2Bd|edgd edBG|BAAG A2dc|
BGGF G2dB|cAAG A2Bd|edgd edBG|1 G2 GF G2:|2 G2 GF G3||
B|d2Bd gdBG|d2Bd gdBG|d2Bd gdBG|BAAG A2dc|
dGBd gdBG|dGBd g2Bd|efgf edBA|1 G2 GF G3:|2 G2 GF G4||

